media/logo.svg

<?xml version="1.0" encoding="UTF-8" standalone="no"?>
<svg
   xmlns:dc="http://purl.org/dc/elements/1.1/"
   xmlns:cc="http://creativecommons.org/ns#"
   xmlns:rdf="http://www.w3.org/1999/02/22-rdf-syntax-ns#"
   xmlns:svg="http://www.w3.org/2000/svg"
   xmlns="http://www.w3.org/2000/svg"
   xmlns:sodipodi="http://sodipodi.sourceforge.net/DTD/sodipodi-0.dtd"
   xmlns:inkscape="http://www.inkscape.org/namespaces/inkscape"
   height="400"
   viewBox="0 0 400 400"
   width="400"
   version="1.1"
   id="svg2"
   inkscape:version="0.91 r13725"
   sodipodi:docname="logo.svg"
   inkscape:export-filename="/Users/jmjuanes/workspace/siimple/siimple-colors/media/logo.png"
   inkscape:export-xdpi="221.526"
   inkscape:export-ydpi="221.526">
  <metadata
     id="metadata10">
    <rdf:RDF>
      <cc:Work
         rdf:about="">
        <dc:format>image/svg+xml</dc:format>
        <dc:type
           rdf:resource="http://purl.org/dc/dcmitype/StillImage" />
        <dc:title />
      </cc:Work>
    </rdf:RDF>
  </metadata>
  <defs
     id="defs8" />
  <sodipodi:namedview
     pagecolor="#4894f0"
     bordercolor="#666666"
     borderopacity="1"
     objecttolerance="10"
     gridtolerance="10"
     guidetolerance="10"
     inkscape:pageopacity="0"
     inkscape:pageshadow="2"
     inkscape:window-width="1366"
     inkscape:window-height="833"
     id="namedview6"
     showgrid="false"
     inkscape:zoom="2.2929124"
     inkscape:cx="173.63842"
     inkscape:cy="204.84513"
     inkscape:window-x="32"
     inkscape:window-y="40"
     inkscape:window-maximized="0"
     inkscape:current-layer="layer3" />
  <g
     inkscape:groupmode="layer"
     id="layer3"
     inkscape:label="image">
    <path
       style="opacity:0.6;fill:#ffffff;fill-opacity:1;fill-rule:evenodd;stroke:none;stroke-width:1px;stroke-linecap:butt;stroke-linejoin:miter;stroke-opacity:1"
       d="m 137.80164,117.34375 -1.375,11.94531 c 3.63752,-0.26655 6.96237,-1.48405 10.06445,-3.71875 l -8.68945,-8.22656 z m 10.1582,9.62109 c -3.57774,2.63452 -7.51123,4.06716 -11.76367,4.32813 l -2.08594,18.13281 0.54492,0.51367 6.66602,6.3125 1.04883,-9.12109 c 0.0942,-0.81875 1.08319,-1.17797 1.68164,-0.61133 l 6.66601,6.31055 1.04883,-9.11914 c 0.0942,-0.81876 1.08319,-1.17799 1.68164,-0.61133 l 6.66602,6.31055 1.04882,-9.11914 0.0879,-0.74414 -13.29102,-12.58204 z m 14.96289,15.54102 -1.05078,9.12109 c -0.0942,0.81875 -1.08124,1.17797 -1.67969,0.61133 l -6.66601,-6.3125 -1.05079,9.1211 c -0.0942,0.81875 -1.08319,1.17798 -1.68164,0.61132 l -6.66601,-6.31054 -1.04883,9.11914 c -0.0942,0.81876 -1.08319,1.17799 -1.68164,0.61132 l -6.66602,-6.31054 11.64454,30.23242 31.28515,0 -14.73828,-40.49414 z"
       id="path4149"
       inkscape:connector-curvature="0" />
    <path
       sodipodi:nodetypes="sccccccccccccs"
       inkscape:connector-curvature="0"
       id="path4143"
       d="m 199.46001,31.130331 c 9.01519,-0.10877 17.85293,2.508624 25.35496,7.509149 l 107.36843,71.57895 c 12.44558,8.29776 19.92124,22.26607 19.92186,37.22419 l 0,107.36842 c -6.2e-4,14.95814 -7.47628,28.92646 -19.92186,37.22421 l -107.36843,71.57894 c -15.02719,10.01635 -34.60276,10.01635 -49.62994,0 L 67.816613,292.03525 C 55.371013,283.7375 47.895364,269.76918 47.894737,254.81104 l 0,-107.36842 c 6.28e-4,-14.95812 7.476277,-28.92644 19.921876,-37.22419 L 175.18503,38.63948 c 7.1959,-4.796479 15.62765,-7.404732 24.27498,-7.509149 z"
       style="opacity:1;fill:none;fill-opacity:1;fill-rule:evenodd;stroke:#ffffff;stroke-width:25;stroke-linecap:butt;stroke-linejoin:round;stroke-miterlimit:4;stroke-dasharray:none;stroke-opacity:1" />
    <path
       style="color:#000000;font-style:normal;font-variant:normal;font-weight:normal;font-stretch:normal;font-size:medium;line-height:normal;font-family:sans-serif;text-indent:0;text-align:start;text-decoration:none;text-decoration-line:none;text-decoration-style:solid;text-decoration-color:#000000;letter-spacing:normal;word-spacing:normal;text-transform:none;direction:ltr;block-progression:tb;writing-mode:lr-tb;baseline-shift:baseline;text-anchor:start;white-space:normal;clip-rule:nonzero;display:inline;overflow:visible;visibility:visible;opacity:1;isolation:auto;mix-blend-mode:normal;color-interpolation:sRGB;color-interpolation-filters:linearRGB;solid-color:#000000;solid-opacity:1;fill:#ffffff;fill-opacity:1;fill-rule:evenodd;stroke:none;stroke-width:68.25457764;stroke-linecap:round;stroke-linejoin:round;stroke-miterlimit:4;stroke-dasharray:none;stroke-dashoffset:0;stroke-opacity:1;color-rendering:auto;image-rendering:auto;shape-rendering:auto;text-rendering:auto;enable-background:accumulate"
       d="M 131.87891 183 C 130.84127 183.00012 130.00012 183.84127 130 184.87891 L 130 201.12109 C 130.00012 202.15873 130.84127 202.99988 131.87891 203 L 141 203 L 141 228.43945 L 141 258.33398 L 141 271.56055 C 141.001 287.26662 153.73338 299.99855 169.43945 300 L 229.22656 300 C 244.93264 299.999 257.66457 287.26663 257.66602 271.56055 C 257.77439 246.32517 257.69163 225.38092 257.67383 203 L 268.12109 203 C 269.15873 202.99988 269.99988 202.15873 270 201.12109 L 270 184.87891 C 269.99988 183.84127 269.15873 183.00012 268.12109 183 L 209.40039 183 L 209.40039 195.28906 C 209.49602 202.05067 199.30479 202.05067 199.40039 195.28906 L 199.40039 190.58789 C 199.49602 197.3495 189.30479 197.3495 189.40039 190.58789 L 189.40039 206.58398 C 189.49602 213.34559 179.30479 213.34559 179.40039 206.58398 L 179.40039 183 L 155 183 L 131.87891 183 z M 174.73633 218.17188 C 181.60534 218.21697 188.54906 218.71289 195.29688 219.51758 C 196.55599 219.66828 197.50292 220.73775 197.5 222.00586 C 197.499 222.64856 197.48253 223.31676 197.45703 224 L 201.29492 224 C 201.29592 223.31485 201.29078 222.60634 201.30078 221.96289 C 201.31888 220.74404 202.21336 219.71592 203.41797 219.5293 C 209.87172 218.53257 216.66809 218.12677 223.53711 218.17188 C 230.40613 218.21697 237.34791 218.71289 244.0957 219.51758 C 245.35561 219.66736 246.30358 220.73708 246.30078 222.00586 C 246.29078 226.73385 245.60323 232.6938 244.61914 237.90234 C 244.1271 240.50662 243.56162 242.91141 242.94336 244.90039 C 242.32509 246.88937 241.87801 248.37539 240.62109 249.71289 C 240.5138 249.82651 240.3961 249.92983 240.26953 250.02148 C 238.3278 251.43362 235.83342 252.12827 232.9375 252.64453 C 230.04158 253.16079 226.76526 253.40244 223.50781 253.39844 C 220.25036 253.39444 217.02273 253.1464 214.21289 252.625 C 211.40305 252.1036 209.02716 251.45088 207.19531 249.91797 C 207.18531 249.90897 207.17572 249.89972 207.16602 249.89062 C 203.87133 247.04307 202.78393 242.29761 202.05859 237.17188 C 201.77307 235.1541 201.60586 233.06825 201.48633 231 L 196.86719 231 C 196.58519 233.33527 196.23704 235.68636 195.81836 237.90234 C 195.32632 240.50662 194.76084 242.91141 194.14258 244.90039 C 193.52431 246.88937 193.07918 248.37539 191.82227 249.71289 C 191.71498 249.82651 191.59728 249.92983 191.4707 250.02148 C 189.52897 251.43362 187.03264 252.12827 184.13672 252.64453 C 181.2408 253.16079 177.96448 253.40244 174.70703 253.39844 C 171.44958 253.39444 168.22195 253.1464 165.41211 252.625 C 162.60227 252.1036 160.22834 251.45088 158.39648 249.91797 C 158.38598 249.90897 158.37553 249.89982 158.36523 249.89062 C 155.07055 247.04307 153.98315 242.29764 153.25781 237.17188 C 152.5325 232.0461 152.4334 226.44174 152.5 221.96289 C 152.5183 220.74341 153.41376 219.71507 154.61914 219.5293 C 161.0729 218.53257 167.86731 218.12678 174.73633 218.17188 z M 174.70117 223.17773 C 168.80314 223.13933 163.03989 223.5112 157.52539 224.24023 C 157.52466 228.14986 157.6496 232.5177 158.20898 236.4707 C 158.86963 241.13931 160.34154 244.9696 161.625 246.0918 C 162.10033 246.47978 163.9318 247.26504 166.32422 247.70898 C 168.73231 248.15584 171.71288 248.39444 174.71289 248.39844 C 177.7129 248.40244 180.74489 248.16903 183.25977 247.7207 C 185.59864 247.30375 187.40575 246.63016 188.25391 246.10547 C 188.25891 246.04527 188.8695 245.02338 189.36914 243.41602 C 189.90258 241.69991 190.43822 239.44146 190.9043 236.97461 C 191.69012 232.81544 192.18681 228.20113 192.35742 224.26367 C 186.51235 223.63628 180.5708 223.21593 174.70117 223.17773 z M 223.50195 223.17773 C 217.60392 223.13933 211.84067 223.5112 206.32617 224.24023 C 206.32544 228.14985 206.44843 232.5177 207.00781 236.4707 C 207.66846 241.13931 209.14232 244.9696 210.42578 246.0918 C 210.90112 246.47978 212.73259 247.26504 215.125 247.70898 C 217.53309 248.15584 220.51366 248.39444 223.51367 248.39844 C 226.51368 248.40244 229.54372 248.16903 232.05859 247.7207 C 234.39746 247.30375 236.20653 246.63016 237.05469 246.10547 C 237.05969 246.04527 237.66833 245.02336 238.16797 243.41602 C 238.70141 241.69991 239.239 239.44146 239.70508 236.97461 C 240.4909 232.81544 240.98759 228.20113 241.1582 224.26367 C 235.31313 223.63628 229.37158 223.21593 223.50195 223.17773 z M 175.5 229.00195 C 179.33902 229.00195 182.5 232.16098 182.5 236 C 182.5 239.83903 179.33902 243 175.5 243 C 171.66097 243 168.5 239.83903 168.5 236 C 168.5 232.16098 171.66097 229.00195 175.5 229.00195 z M 222.19922 229.00195 C 226.03824 229.00195 229.19922 232.16097 229.19922 236 C 229.19922 239.83903 226.03824 243 222.19922 243 C 218.36018 243 215.19922 239.83903 215.19922 236 C 215.19922 232.16097 218.36018 229.00195 222.19922 229.00195 z M 208.31055 254.97656 C 210.49408 255.07426 211.84366 257.39916 210.8457 259.34375 C 208.85067 263.48657 204.59537 266.08594 199.9668 266.08594 C 195.33822 266.08594 191.08097 263.48657 189.08594 259.34375 C 188.06725 257.30592 189.60216 254.92091 191.87891 255.00391 C 193.00733 255.04481 194.01723 255.71581 194.49219 256.74023 C 195.46101 258.75205 197.58229 260.08594 199.9668 260.08594 C 202.3513 260.08594 204.47259 258.75205 205.44141 256.74023 C 205.94653 255.62039 207.08329 254.92162 208.31055 254.97656 z "
       id="rect4216" />
    <path
       style="opacity:0.6;fill:#ffffff;fill-opacity:1;fill-rule:evenodd;stroke:none;stroke-width:1px;stroke-linecap:butt;stroke-linejoin:miter;stroke-opacity:1"
       d="m 264.13246,105.60699 c -18.35541,-0.0448 -41.42152,20.61416 -25.96289,41.48827 -0.005,0.008 -0.009,0.0157 -0.0137,0.0234 4.43599,1.83479 9.2973,3.19371 13.83789,4.12305 3e-4,-0.0344 0.002,-0.0712 0.002,-0.10547 18.5268,-4.18051 8.79732,-18.05219 13.15235,-28.13477 2.83111,-6.20653 11.80946,-5.94166 17.55859,-0.0293 -0.47716,-10.93096 -9.60995,-17.34336 -18.57422,-17.36523 z m 18.5625,23.39648 c -2.3199,4.57127 -5.55329,14.46806 0,14.45312 5.89798,0.01 2.51867,-9.9033 0,-14.45312 z m -48.20507,24.69922 c -12.6858,24.18791 -14.11019,31.82686 -18.3438,61.68574 l 25.44358,-0.0413 c 3.90865,-14.85729 7.98692,-31.99496 10.03498,-56.68352 -5.31454,-0.96672 -11.62739,-2.69088 -17.13476,-4.96093 z m 2.89843,6.52148 c 1.7139,0.0474 2.87262,1.7666 2.27344,3.37305 -5.51446,15.46141 -11.81245,31.05741 -13.21484,44.54687 -0.28511,3.38823 -5.39143,2.85674 -4.97266,-0.51758 1.51813,-14.60269 8.01582,-30.3927 13.47852,-45.70898 0.35316,-1.0371 1.34037,-1.72348 2.43554,-1.69336 z"
       id="path4139"
       inkscape:connector-curvature="0"
       sodipodi:nodetypes="ccccccccccccccccccccccc" />
    <path
       style="color:#000000;font-style:normal;font-variant:normal;font-weight:normal;font-stretch:normal;font-size:medium;line-height:normal;font-family:sans-serif;text-indent:0;text-align:start;text-decoration:none;text-decoration-line:none;text-decoration-style:solid;text-decoration-color:#000000;letter-spacing:normal;word-spacing:normal;text-transform:none;direction:ltr;block-progression:tb;writing-mode:lr-tb;baseline-shift:baseline;text-anchor:start;white-space:normal;clip-rule:nonzero;display:inline;overflow:visible;visibility:visible;opacity:0.6;isolation:auto;mix-blend-mode:normal;color-interpolation:sRGB;color-interpolation-filters:linearRGB;solid-color:#000000;solid-opacity:1;fill:#ffffff;fill-opacity:1;fill-rule:evenodd;stroke:none;stroke-width:10;stroke-linecap:round;stroke-linejoin:miter;stroke-miterlimit:4;stroke-dasharray:none;stroke-dashoffset:0;stroke-opacity:1;color-rendering:auto;image-rendering:auto;shape-rendering:auto;text-rendering:auto;enable-background:accumulate"
       d="m 179.39967,183 0,23.58398 c -0.0956,6.76161 10.09563,6.76161 10,0 l 0,-15.99609 c -0.0956,6.76161 10.09563,6.76161 10,0 l 0,4.70117 c -0.0956,6.76161 10.09563,6.76161 10,0 l 0,-12.28906 z"
       id="path4146"
       inkscape:connector-curvature="0"
       sodipodi:nodetypes="ccccccccc" />
  </g>
</svg>

<?xml version="1.0" encoding="UTF-8" standalone="no"?>
<svg xmlns:rdf="http://www.w3.org/1999/02/22-rdf-syntax-ns#" xmlns="http://www.w3.org/2000/svg" height="400" width="400" version="1.1" xmlns:cc="http://creativecommons.org/ns#" xmlns:dc="http://purl.org/dc/elements/1.1/" viewBox="0 0 400 400">
<path style="opacity:.30;color-rendering:auto;text-decoration-color:#000000;color:#000000;isolation:auto;mix-blend-mode:normal;fill-rule:evenodd;shape-rendering:auto;solid-color:#000000;block-progression:tb;text-decoration-line:none;image-rendering:auto;white-space:normal;text-indent:0;text-transform:none;text-decoration-style:solid;fill:#ffffff" d="m201.86 30.025c-12.986-0.34497-25.812 2.9302-37.043 9.459l-86 50c-21.557 12.536-34.819 35.586-34.82 60.516v100c0.0014 24.932 13.263 47.983 34.816 60.516l86 50c21.752 12.645 48.616 12.645 70.367 0l86-50c21.55-12.54 34.81-35.59 34.81-60.52v-100c-0.001-24.932-13.263-47.983-34.816-60.516l-86-50c-10.14-5.8948-21.599-9.1474-33.324-9.459z"/>
<path style="opacity:.60;fill:#ffffff;fill-rule:evenodd" d="m137.8 117.34-1.375 11.945c3.6375-0.26655 6.9624-1.484 10.064-3.7188l-8.6894-8.2266zm10.158 9.6211c-3.5777 2.6345-7.5112 4.0672-11.764 4.3281l-2.0859 18.133 0.54492 0.51367 6.666 6.3125 1.0488-9.1211c0.0942-0.81875 1.0832-1.178 1.6816-0.61133l6.666 6.3106 1.0488-9.1191c0.0942-0.81876 1.0832-1.178 1.6816-0.61133l6.666 6.3106 1.0488-9.1191 0.0879-0.74414-13.291-12.582zm14.963 15.541-1.0508 9.1211c-0.0942 0.81875-1.0812 1.178-1.6797 0.61133l-6.666-6.3125-1.0508 9.1211c-0.0942 0.81875-1.0832 1.178-1.6816 0.61132l-6.666-6.3105-1.0488 9.1191c-0.0942 0.81876-1.0832 1.178-1.6816 0.61132l-6.666-6.3105 11.645 30.232h31.285l-14.738-40.494z"/>
<path style="color-rendering:auto;text-decoration-color:#000000;color:#000000;isolation:auto;mix-blend-mode:normal;fill-rule:evenodd;shape-rendering:auto;solid-color:#000000;block-progression:tb;text-decoration-line:none;image-rendering:auto;white-space:normal;text-indent:0;text-transform:none;text-decoration-style:solid;fill:#ffffff" d="m131.88 183c-1.04 0-1.88 0.84-1.88 1.88v16.24c0 1.04 0.84 1.88 1.88 1.88h9.12v68.56c0 15.71 12.73 28.44 28.44 28.44h59.79c15.7 0 28.43-12.73 28.44-28.44 0.1-25.23 0.02-46.18 0-68.56h10.45c1.04 0 1.88-0.84 1.88-1.88v-16.24c0-1.04-0.84-1.88-1.88-1.88h-58.72v12.29c0.1 6.76-10.1 6.76-10 0v-4.7c0.1 6.76-10.1 6.76-10 0v15.99c0.1 6.77-10.1 6.77-10 0v-23.58h-47.52zm42.86 35.17c6.87 0.05 13.81 0.54 20.56 1.35 1.26 0.15 2.2 1.22 2.2 2.49 0 0.64-0.02 1.31-0.04 1.99h3.83c0.01-0.69 0-1.39 0.01-2.04 0.02-1.22 0.91-2.24 2.12-2.43 6.45-1 13.25-1.4 20.12-1.36 6.87 0.05 13.81 0.54 20.56 1.35 1.26 0.15 2.2 1.22 2.2 2.49-0.01 4.72-0.7 10.68-1.68 15.89-0.49 2.61-1.06 5.01-1.68 7-0.61 1.99-1.06 3.48-2.32 4.81-0.11 0.12-0.22 0.22-0.35 0.31-1.94 1.41-4.44 2.11-7.33 2.62-2.9 0.52-6.17 0.76-9.43 0.76-3.26-0.01-6.49-0.25-9.3-0.78-2.81-0.52-5.18-1.17-7.01-2.7l-0.03-0.03c-3.3-2.85-4.39-7.59-5.11-12.72-0.29-2.02-0.45-4.1-0.57-6.17h-4.62c-0.28 2.34-0.63 4.69-1.05 6.9-0.49 2.61-1.06 5.01-1.68 7s-1.06 3.48-2.32 4.81c-0.11 0.12-0.22 0.22-0.35 0.31-1.94 1.41-4.44 2.11-7.33 2.62-2.9 0.52-6.18 0.76-9.43 0.76-3.26-0.01-6.49-0.25-9.3-0.78-2.81-0.52-5.18-1.17-7.01-2.7l-0.03-0.03c-3.3-2.85-4.39-7.59-5.11-12.72-0.73-5.12-0.83-10.73-0.76-15.21 0.02-1.22 0.91-2.24 2.12-2.43 6.45-1 13.25-1.4 20.12-1.36zm-0.04 5.01c-5.9-0.04-11.66 0.33-17.17 1.06-0.01 3.91 0.12 8.28 0.68 12.23 0.66 4.67 2.13 8.5 3.41 9.62 0.48 0.39 2.31 1.18 4.7 1.62 2.41 0.45 5.39 0.68 8.39 0.69 3 0 6.03-0.23 8.55-0.68 2.34-0.42 4.15-1.09 4.99-1.61 0.01-0.06 0.62-1.09 1.12-2.69 0.53-1.72 1.07-3.98 1.53-6.45 0.79-4.15 1.29-8.77 1.46-12.71-5.85-0.62-11.79-1.04-17.66-1.08zm48.8 0c-5.9-0.04-11.66 0.33-17.17 1.06 0 3.91 0.12 8.28 0.68 12.23 0.66 4.67 2.13 8.5 3.42 9.62 0.47 0.39 2.3 1.18 4.69 1.62 2.41 0.45 5.39 0.68 8.39 0.69 3 0 6.03-0.23 8.55-0.68 2.34-0.42 4.15-1.09 4.99-1.61 0.01-0.06 0.62-1.09 1.12-2.69 0.53-1.72 1.07-3.98 1.54-6.45 0.78-4.15 1.28-8.77 1.45-12.71-5.85-0.62-11.79-1.04-17.66-1.08zm-48 5.82c3.84 0 7 3.16 7 7s-3.16 7-7 7-7-3.16-7-7 3.16-7 7-7zm46.7 0c3.84 0 7 3.16 7 7s-3.16 7-7 7-7-3.16-7-7 3.16-7 7-7zm-13.89 25.98c2.18 0.09 3.53 2.42 2.54 4.36-2 4.15-6.25 6.75-10.88 6.75s-8.89-2.6-10.88-6.75c-1.02-2.03 0.51-4.42 2.79-4.34 1.13 0.04 2.14 0.72 2.61 1.74 0.97 2.01 3.09 3.35 5.48 3.35 2.38 0 4.5-1.34 5.47-3.35 0.51-1.12 1.64-1.82 2.87-1.76z"/>
<path style="opacity:.60;fill:#ffffff;fill-rule:evenodd" d="m264.13 105.61c-18.355-0.0448-41.422 20.614-25.963 41.488-0.005 0.008-0.009 0.0157-0.0137 0.0234 4.436 1.8348 9.2973 3.1937 13.838 4.123 0.0003-0.0344 0.002-0.0712 0.002-0.10547 18.527-4.1805 8.7973-18.052 13.152-28.135 2.8311-6.2065 11.809-5.9417 17.559-0.0293-0.47716-10.931-9.61-17.343-18.574-17.365zm18.562 23.396c-2.3199 4.5713-5.5533 14.468 0 14.453 5.898 0.01 2.5187-9.9033 0-14.453zm-48.205 24.699c-12.686 24.188-14.11 31.827-18.344 61.686l25.444-0.0413c3.9086-14.857 7.9869-31.995 10.035-56.684-5.3145-0.96672-11.627-2.6909-17.135-4.9609zm2.8984 6.5215c1.7139 0.0474 2.8726 1.7666 2.2734 3.373-5.5145 15.461-11.812 31.057-13.215 44.547-0.28511 3.3882-5.3914 2.8567-4.9727-0.51758 1.5181-14.603 8.0158-30.393 13.479-45.709 0.35316-1.0371 1.3404-1.7235 2.4355-1.6934z"/>
<path style="opacity:.60;color-rendering:auto;text-decoration-color:#000000;color:#000000;isolation:auto;mix-blend-mode:normal;fill-rule:evenodd;shape-rendering:auto;solid-color:#000000;block-progression:tb;text-decoration-line:none;image-rendering:auto;white-space:normal;text-indent:0;text-transform:none;text-decoration-style:solid;fill:#ffffff" d="m179.4 183v23.584c-0.0956 6.7616 10.096 6.7616 10 0v-15.996c-0.0956 6.7616 10.096 6.7616 10 0v4.7012c-0.0956 6.7616 10.096 6.7616 10 0v-12.289z"/>
</svg>
